src/assets/full-logo-studio.svg

<svg width="204" height="32" viewBox="0 0 204 32" fill="none" xmlns="http://www.w3.org/2000/svg">
<path d="M122.782 12.9652C121.991 13.8131 121.596 14.9563 121.596 16.3947C121.596 17.8326 121.991 18.9757 122.782 19.8236C123.572 20.6719 124.602 21.0958 125.871 21.0958C127.139 21.0958 128.169 20.6719 128.959 19.8236C129.75 18.9757 130.145 17.8326 130.145 16.3947C130.145 14.9563 129.75 13.8131 128.959 12.9652C128.169 12.117 127.139 11.693 125.871 11.693C124.602 11.693 123.572 12.117 122.782 12.9652ZM37.9954 7.02575H40.8911V4.13007H37.9954V7.02575ZM134.756 23.8204V9.34236H137.652V11.278H137.79C137.826 11.2229 137.872 11.1446 137.928 11.0433C137.983 10.9417 138.13 10.762 138.369 10.5037C138.608 10.2457 138.87 10.0199 139.155 9.82651C139.44 9.63253 139.83 9.45734 140.327 9.30063C140.823 9.14424 141.356 9.06588 141.926 9.06588C142.588 9.06588 143.199 9.15793 143.76 9.34236C144.321 9.52678 144.762 9.74783 145.084 10.0062C145.406 10.2642 145.677 10.5174 145.897 10.7668C146.118 11.0156 146.265 11.2321 146.339 11.4166L146.476 11.693H146.614C146.651 11.6192 146.702 11.5226 146.766 11.4029C146.83 11.2828 147 11.0751 147.276 10.7805C147.552 10.4855 147.855 10.2228 148.186 9.99214C148.517 9.76153 148.977 9.54971 149.565 9.35605C150.153 9.16271 150.779 9.06588 151.441 9.06588C153.058 9.06588 154.336 9.58188 155.274 10.6145C156.211 11.6469 156.68 13.1127 156.68 15.0117V23.8204H153.785V15.15C153.785 12.8455 152.773 11.693 150.751 11.693C149.758 11.693 148.912 12.0708 148.214 12.8267C147.515 13.5825 147.166 14.5416 147.166 15.7032V23.8204H144.27V15.15C144.27 12.8455 143.259 11.693 141.237 11.693C140.244 11.693 139.398 12.0708 138.7 12.8267C138.001 13.5825 137.652 14.5416 137.652 15.7032V23.8204H134.756ZM120.839 21.7045C119.589 20.34 118.963 18.5703 118.963 16.3947C118.963 14.2189 119.593 12.4537 120.853 11.0987C122.112 9.74338 123.688 9.06588 125.582 9.06588C126.446 9.06588 127.246 9.24107 127.981 9.59112C128.717 9.9415 129.241 10.2826 129.553 10.6145L129.994 11.1401H130.132V9.34236H133.028V23.8204H130.132V21.5108H129.994C129.958 21.566 129.898 21.6443 129.815 21.7456C129.733 21.8472 129.553 22.0268 129.277 22.2852C129.002 22.5432 128.708 22.769 128.395 22.9627C128.082 23.1563 127.669 23.3315 127.154 23.4882C126.639 23.6446 126.115 23.723 125.582 23.723C123.688 23.723 122.107 23.0503 120.839 21.7045ZM107.212 15.0117H115.486C115.339 14.1084 114.902 13.3293 114.176 12.6747C113.449 12.0202 112.507 11.693 111.349 11.693C110.356 11.693 109.469 11.9925 108.688 12.5919C107.907 13.1911 107.415 13.9976 107.212 15.0117ZM105.864 21.6214C104.485 20.2017 103.796 18.4594 103.796 16.3947C103.796 14.3295 104.49 12.5919 105.878 11.1812C107.266 9.77109 108.962 9.06588 110.966 9.06588C112.97 9.06588 114.666 9.77109 116.054 11.1812C117.442 12.5919 118.136 14.3295 118.136 16.3947V17.3624H106.692C106.894 18.5056 107.39 19.4134 108.181 20.0864C108.971 20.7595 109.9 21.0958 110.966 21.0958C111.83 21.0958 112.593 20.9346 113.255 20.612C113.917 20.2893 114.367 19.9622 114.606 19.6303L114.965 19.1598H117.998C117.962 19.2892 117.897 19.4551 117.805 19.658C117.713 19.8606 117.479 20.2247 117.102 20.7502C116.725 21.2758 116.298 21.7367 115.82 22.1329C115.342 22.5292 114.671 22.8935 113.807 23.2254C112.942 23.5573 111.996 23.723 110.966 23.723C108.962 23.723 107.262 23.0226 105.864 21.6214ZM98.2477 11.9695L98.2165 23.8204H95.3211L95.352 11.4385C95.352 10.2807 96.2907 9.34236 97.4485 9.34236H103.901V11.9695H98.2477ZM84.7347 11.9695V9.34236H86.3894V6.30015H89.2851V9.34236H93.5593V11.9695H89.2851V21.1933H93.6973V23.8204H88.7853C87.4622 23.8204 86.3894 22.7477 86.3894 21.4248V11.9695H84.7347ZM71.0882 19.2089H74.2598C74.2782 19.264 74.3104 19.3379 74.3563 19.4299C74.4025 19.522 74.5127 19.6879 74.6872 19.9275C74.8621 20.1673 75.064 20.3795 75.294 20.5636C75.5237 20.7483 75.8546 20.9139 76.2868 21.0617C76.7188 21.2092 77.1924 21.2828 77.7071 21.2828C78.7181 21.2828 79.4536 21.1261 79.9132 20.8126C80.3728 20.4992 80.6028 20.1027 80.6028 19.6233C80.6028 19.1812 80.2993 18.8308 79.6925 18.5725C79.0857 18.3145 78.3505 18.1023 77.4864 17.9364C76.6222 17.7708 75.7584 17.5538 74.8943 17.2866C74.0301 17.0194 73.2946 16.5629 72.6879 15.9179C72.0814 15.2723 71.7778 14.4333 71.7778 13.401C71.7778 12.2951 72.2833 11.3267 73.2946 10.4973C74.306 9.66725 75.6386 9.25285 77.2934 9.25285C78.3228 9.25285 79.2421 9.40479 80.0511 9.70897C80.8602 10.0132 81.4666 10.382 81.8712 10.8152C82.2757 11.2484 82.6111 11.6819 82.8777 12.1151C83.1443 12.5483 83.3144 12.9216 83.388 13.235L83.4982 13.6774H80.4649C80.4464 13.6223 80.4187 13.5577 80.3821 13.4841C80.3455 13.4102 80.2486 13.2672 80.0925 13.0554C79.9361 12.8432 79.7524 12.6588 79.5409 12.5021C79.3297 12.3457 79.0261 12.2024 78.6308 12.0734C78.2356 11.9444 77.7899 11.88 77.2934 11.88C76.4843 11.88 75.8686 12.0275 75.4456 12.3221C75.0229 12.6174 74.8114 12.9859 74.8114 13.4287C74.8114 13.7972 75.0274 14.1062 75.4596 14.3549C75.8916 14.604 76.4385 14.7837 77.1003 14.8945C77.7622 15.005 78.47 15.1662 79.2239 15.3783C79.9776 15.5905 80.6853 15.8348 81.3472 16.1113C82.0091 16.3877 82.556 16.8257 82.9879 17.4248C83.4201 18.0243 83.6361 18.7572 83.6361 19.6233C83.6361 20.8034 83.1077 21.8128 82.0505 22.6518C80.9933 23.4908 79.5456 23.91 77.7071 23.91C76.6222 23.91 75.6527 23.7488 74.7978 23.4261C73.9425 23.1035 73.2946 22.7117 72.8535 22.2508C72.412 21.7899 72.0492 21.329 71.7641 20.8681C71.4791 20.4068 71.3001 20.0198 71.2265 19.7064L71.0882 19.2089ZM57.4377 9.34236H60.4709L63.5698 20.9248H64.9503L68.3308 9.34236H71.3641L65.474 29.0327H62.4353L64.0763 23.8204H63.0707C62.0846 23.8204 61.2204 23.1611 60.9599 22.2097L57.4377 9.34236ZM46.7653 12.9652C45.9747 13.8131 45.5794 14.9563 45.5794 16.3947C45.5794 17.8326 45.9747 18.9757 46.7653 19.8236C47.5558 20.6719 48.5853 21.0958 49.8537 21.0958C51.1223 21.0958 52.1521 20.6719 52.9427 19.8236C53.7332 18.9757 54.1282 17.8326 54.1282 16.3947C54.1282 14.9563 53.7332 13.8131 52.9427 12.9652C52.1521 12.117 51.1223 11.693 49.8537 11.693C48.5853 11.693 47.5558 12.117 46.7653 12.9652ZM44.6417 21.6214C43.2443 20.2202 42.5458 18.4779 42.5458 16.3947C42.5458 14.3113 43.2443 12.569 44.6417 11.1675C46.039 9.76631 47.7766 9.06588 49.8537 9.06588C51.9314 9.06588 53.6689 9.76631 55.0659 11.1675C56.4633 12.569 57.1618 14.3113 57.1618 16.3947C57.1618 18.4779 56.4633 20.2202 55.0659 21.6214C53.6689 23.0226 51.9314 23.723 49.8537 23.723C47.7766 23.723 46.039 23.0226 44.6417 21.6214ZM33.6523 29.0327V26.4053H37.9954V9.34236H40.8911V26.6368C40.8911 27.96 39.8186 29.0327 38.4955 29.0327H33.6523Z" fill="white"/>
<path d="M16.9054 0H19.801V13.5996C19.801 16.9126 18.5588 19.9356 16.5203 22.2376C16.7722 21.1346 16.9054 19.9876 16.9054 18.8122V0Z" fill="#4038FF"/>
<path d="M7.48157 23.7096V23.7125C6.07274 25.4494 3.93132 26.5706 1.52966 26.6037L2.39668 23.7096H7.48157Z" fill="#4038FF"/>
<path d="M9.20553 18.5088V18.7986C9.20553 19.7122 9.04945 20.5875 8.7596 21.4026H3.05933L3.92379 18.5088H9.20553Z" fill="#4038FF"/>
<path d="M22.1062 0H25.0018V8.39751C25.0018 11.7105 23.7596 14.7335 21.7211 17.0355C21.973 15.9325 22.1062 14.7855 22.1062 13.6101V0Z" fill="#4038FF"/>
<path d="M14.4778 0.000244141V18.8246C14.4778 26.0114 8.62781 31.8524 1.44705 31.8524H0L0.864469 28.9587H1.44705C7.01131 28.9587 11.5811 24.4395 11.5811 18.8246V0.000244141H14.4778Z" fill="#4038FF"/>
<path d="M164.697 13.7441H165.962C165.98 14.2181 166.149 14.5736 166.468 14.8105C166.791 15.043 167.172 15.1592 167.609 15.1592C168.029 15.1592 168.393 15.0658 168.703 14.8789C169.013 14.6921 169.168 14.4209 169.168 14.0654C169.168 13.7783 169.075 13.5482 168.888 13.375C168.701 13.2018 168.368 13.0697 167.89 12.9785L166.714 12.7393C166.126 12.6162 165.673 12.3906 165.354 12.0625C165.039 11.7298 164.882 11.2832 164.882 10.7227C164.882 10.4447 164.943 10.1826 165.066 9.93652C165.194 9.68587 165.374 9.4694 165.606 9.28711C165.843 9.10482 166.119 8.96126 166.434 8.85645C166.753 8.74707 167.108 8.69238 167.5 8.69238C167.837 8.69238 168.165 8.73796 168.484 8.8291C168.808 8.91569 169.095 9.05241 169.346 9.23926C169.601 9.42611 169.804 9.66536 169.954 9.95703C170.109 10.2441 170.191 10.5882 170.2 10.9893H168.942C168.924 10.5153 168.776 10.1826 168.498 9.99121C168.225 9.79525 167.896 9.69727 167.514 9.69727C167.122 9.69727 166.789 9.79069 166.516 9.97754C166.247 10.1644 166.112 10.4082 166.112 10.709C166.112 10.987 166.192 11.2035 166.352 11.3584C166.511 11.5133 166.769 11.6273 167.124 11.7002L168.327 11.9531C169.038 12.1035 169.564 12.3473 169.906 12.6846C170.253 13.0173 170.426 13.473 170.426 14.0518C170.426 14.3525 170.357 14.6328 170.221 14.8926C170.089 15.1478 169.895 15.3688 169.64 15.5557C169.389 15.738 169.09 15.8861 168.744 16C168.398 16.1139 168.015 16.1709 167.596 16.1709C167.195 16.1709 166.819 16.1185 166.468 16.0137C166.121 15.9134 165.816 15.763 165.552 15.5625C165.292 15.3574 165.087 15.1045 164.937 14.8037C164.786 14.4984 164.706 14.1452 164.697 13.7441ZM171.462 9.93652V8.86328H172.665V6.47754H173.909V8.86328H175.549V9.93652H173.909V14.9199H175.549V16H172.665V9.93652H171.462ZM177.105 13.6211V8.86328H178.363V13.4775C178.363 13.9925 178.463 14.4027 178.663 14.708C178.864 15.0088 179.231 15.1592 179.764 15.1592C180.297 15.1592 180.719 14.9609 181.029 14.5645C181.343 14.168 181.5 13.6576 181.5 13.0332V8.86328H182.758V16H181.5V14.8242C181.304 15.2435 181.042 15.5739 180.714 15.8154C180.386 16.0524 179.953 16.1709 179.415 16.1709C179.087 16.1709 178.78 16.123 178.492 16.0273C178.21 15.9362 177.966 15.7881 177.761 15.583C177.556 15.3779 177.394 15.1136 177.276 14.79C177.162 14.4665 177.105 14.0768 177.105 13.6211ZM184.587 12.4316C184.587 11.9167 184.644 11.4313 184.758 10.9756C184.876 10.5153 185.052 10.1188 185.284 9.78613C185.517 9.44889 185.81 9.18229 186.166 8.98633C186.521 8.79036 186.936 8.69238 187.41 8.69238C187.943 8.69238 188.401 8.80632 188.784 9.03418C189.167 9.26204 189.47 9.59245 189.693 10.0254V6.47754H190.958V16H189.693V14.8379C189.47 15.2663 189.171 15.5967 188.798 15.8291C188.424 16.057 187.973 16.1709 187.444 16.1709C186.961 16.1709 186.54 16.0729 186.18 15.877C185.824 15.681 185.528 15.4144 185.291 15.0771C185.054 14.7399 184.876 14.3457 184.758 13.8945C184.644 13.4388 184.587 12.9512 184.587 12.4316ZM185.913 13.5391C185.913 13.7806 185.959 14.0016 186.05 14.2021C186.145 14.4027 186.275 14.5736 186.439 14.7148C186.603 14.8516 186.795 14.9609 187.014 15.043C187.232 15.1204 187.474 15.1592 187.738 15.1592C188.372 15.1592 188.855 14.9587 189.187 14.5576C189.525 14.1566 189.693 13.6484 189.693 13.0332V11.8301C189.693 11.2148 189.525 10.7067 189.187 10.3057C188.855 9.90007 188.372 9.69727 187.738 9.69727C187.478 9.69727 187.237 9.73828 187.014 9.82031C186.795 9.89779 186.603 10.0072 186.439 10.1484C186.275 10.2897 186.145 10.4606 186.05 10.6611C185.959 10.8617 185.913 11.0827 185.913 11.3242V13.5391ZM193.108 7.79688V6.47754H194.42V7.79688H193.108ZM193.135 16V8.86328H194.393V16H193.135ZM196.201 12.4316C196.201 11.8893 196.265 11.388 196.393 10.9277C196.525 10.4629 196.723 10.0687 196.987 9.74512C197.256 9.41699 197.591 9.15951 197.992 8.97266C198.393 8.78581 198.865 8.69238 199.407 8.69238C199.95 8.69238 200.421 8.78581 200.822 8.97266C201.224 9.15951 201.556 9.41699 201.821 9.74512C202.085 10.0687 202.283 10.4629 202.415 10.9277C202.547 11.388 202.613 11.8893 202.613 12.4316C202.613 12.9831 202.547 13.4867 202.415 13.9424C202.283 14.3981 202.085 14.79 201.821 15.1182C201.556 15.4463 201.221 15.7038 200.816 15.8906C200.415 16.0775 199.945 16.1709 199.407 16.1709C198.865 16.1709 198.393 16.0775 197.992 15.8906C197.591 15.7038 197.256 15.4463 196.987 15.1182C196.723 14.79 196.525 14.3981 196.393 13.9424C196.265 13.4867 196.201 12.9831 196.201 12.4316ZM197.528 13.5391C197.528 13.7806 197.578 14.0016 197.678 14.2021C197.783 14.4027 197.919 14.5736 198.088 14.7148C198.257 14.8516 198.455 14.9609 198.683 15.043C198.911 15.1204 199.152 15.1592 199.407 15.1592C199.658 15.1592 199.897 15.1204 200.125 15.043C200.353 14.9609 200.551 14.8516 200.72 14.7148C200.889 14.5736 201.023 14.4027 201.123 14.2021C201.228 14.0016 201.28 13.7806 201.28 13.5391V11.3242C201.28 11.0827 201.228 10.8617 201.123 10.6611C201.023 10.4606 200.889 10.2897 200.72 10.1484C200.551 10.0072 200.353 9.89779 200.125 9.82031C199.897 9.73828 199.658 9.69727 199.407 9.69727C199.157 9.69727 198.915 9.73828 198.683 9.82031C198.455 9.89779 198.257 10.0072 198.088 10.1484C197.919 10.2897 197.783 10.4606 197.678 10.6611C197.578 10.8617 197.528 11.0827 197.528 11.3242V13.5391Z" fill="#7B8A95"/>
</svg>

<svg  width="204" height="32" fill="none" xmlns="http://www.w3.org/2000/svg" viewBox="0 0 204 32"><path d="M122.78 12.97c-.79.84-1.18 1.99-1.18 3.42 0 1.44.4 2.59 1.18 3.43a4.03 4.03 0 003.1 1.28c1.26 0 2.29-.43 3.08-1.28.79-.84 1.19-1.99 1.19-3.43 0-1.43-.4-2.58-1.2-3.42a4.03 4.03 0 00-3.08-1.28c-1.27 0-2.3.43-3.09 1.28zM38 7.03h2.9v-2.9H38v2.9zm96.76 16.79V9.34h2.9v1.94h.13l.14-.24a4.56 4.56 0 011.23-1.22 5.29 5.29 0 012.77-.76c.66 0 1.27.1 1.83.28.56.19 1 .4 1.32.67.33.25.6.5.82.76.22.25.36.46.44.65l.14.27h.13l.16-.29a5.72 5.72 0 011.42-1.41 5.97 5.97 0 013.25-.93c1.62 0 2.9.52 3.83 1.55.94 1.04 1.41 2.5 1.41 4.4v8.81h-2.9v-8.67c0-2.3-1-3.46-3.03-3.46-1 0-1.84.38-2.54 1.14a4.07 4.07 0 00-1.04 2.87v8.12h-2.9v-8.67c0-2.3-1.01-3.46-3.03-3.46-1 0-1.84.38-2.54 1.14a4.07 4.07 0 00-1.05 2.87v8.12h-2.9zm-13.92-2.12a7.55 7.55 0 01-1.88-5.3c0-2.18.63-3.95 1.9-5.3a6.18 6.18 0 014.72-2.03c.87 0 1.67.17 2.4.52.74.35 1.26.7 1.57 1.02l.44.53h.14v-1.8h2.9v14.48h-2.9v-2.3H130a6.83 6.83 0 01-1.6 1.45c-.3.19-.72.36-1.24.52a6.25 6.25 0 01-6.31-1.78zm-13.63-6.69h8.28a3.93 3.93 0 00-1.31-2.34 4.06 4.06 0 00-2.83-.98c-1 0-1.88.3-2.66.9a3.9 3.9 0 00-1.48 2.42zm-1.35 6.61a7.21 7.21 0 01-2.06-5.23c0-2.06.69-3.8 2.08-5.2a6.87 6.87 0 015.09-2.12c2 0 3.7.7 5.08 2.11a7.14 7.14 0 012.09 5.21v.97h-11.45c.2 1.15.7 2.05 1.5 2.73.78.67 1.71 1 2.78 1 .86 0 1.62-.16 2.28-.48a3.6 3.6 0 001.36-.98l.36-.47H118c-.04.13-.1.3-.2.5-.09.2-.32.56-.7 1.09-.38.53-.8.99-1.28 1.38a7.86 7.86 0 01-4.85 1.59c-2 0-3.7-.7-5.1-2.1zm-7.61-9.65l-.03 11.85h-2.9l.03-12.38c0-1.16.94-2.1 2.1-2.1h6.45v2.63h-5.65zm-13.52 0V9.34h1.66V6.3h2.9v3.04h4.27v2.63h-4.27v9.22h4.4v2.63h-4.9a2.4 2.4 0 01-2.4-2.4v-9.45h-1.66zM71.1 19.2h3.17l.1.22a4.46 4.46 0 00.93 1.13 4.37 4.37 0 002.41.72c1.02 0 1.75-.15 2.21-.47.46-.31.7-.7.7-1.19 0-.44-.31-.79-.92-1.05-.6-.26-1.34-.47-2.2-.63-.87-.17-1.73-.39-2.6-.65a5 5 0 01-2.2-1.37 3.53 3.53 0 01-.91-2.52c0-1.1.5-2.07 1.51-2.9a6.1 6.1 0 014-1.25 7.8 7.8 0 012.76.46c.81.3 1.42.67 1.82 1.1.4.44.74.87 1 1.3.27.44.44.81.52 1.13l.1.44h-3.03a1.57 1.57 0 00-.08-.2 3.81 3.81 0 00-.84-.98c-.21-.15-.51-.3-.9-.43a4.3 4.3 0 00-1.35-.19c-.8 0-1.42.15-1.84.44-.43.3-.64.67-.64 1.1 0 .38.22.69.65.93.43.25.98.43 1.64.54a20.1 20.1 0 014.25 1.22 3.66 3.66 0 012.29 3.51c0 1.18-.53 2.2-1.59 3.03-1.06.84-2.5 1.26-4.34 1.26a8.2 8.2 0 01-2.91-.48 5.2 5.2 0 01-1.95-1.18c-.44-.46-.8-.92-1.09-1.38a4.16 4.16 0 01-.53-1.16l-.14-.5zM57.44 9.34h3.03l3.1 11.58h1.38l3.38-11.58h3.03l-5.89 19.7h-3.03l1.64-5.22h-1c-1 0-1.86-.66-2.12-1.61L57.44 9.34zm-10.67 3.63c-.8.84-1.2 1.99-1.2 3.42 0 1.44.4 2.59 1.2 3.43a4.03 4.03 0 003.08 1.28c1.27 0 2.3-.43 3.1-1.28.78-.84 1.18-1.99 1.18-3.43 0-1.43-.4-2.58-1.19-3.42a4.03 4.03 0 00-3.09-1.28c-1.26 0-2.3.43-3.08 1.28zm-2.13 8.65a7.1 7.1 0 01-2.1-5.23c0-2.08.7-3.82 2.1-5.22a7.07 7.07 0 015.21-2.1c2.08 0 3.82.7 5.22 2.1a7.1 7.1 0 012.1 5.22 7.1 7.1 0 01-2.1 5.23 7.06 7.06 0 01-5.22 2.1c-2.07 0-3.81-.7-5.2-2.1zm-10.99 7.41v-2.62H38V9.34h2.9v17.3a2.4 2.4 0 01-2.4 2.4h-4.85z" fill="#fff"/><path d="M16.9 0h2.9v13.6c0 3.31-1.24 6.34-3.28 8.64.25-1.1.39-2.25.39-3.43V0zM7.48 23.71a7.79 7.79 0 01-5.95 2.9l.87-2.9h5.08zM9.2 18.5v.3c0 .91-.15 1.79-.44 2.6h-5.7l.86-2.9h5.29zM22.1 0H25v8.4c0 3.31-1.24 6.33-3.28 8.64.25-1.1.39-2.25.39-3.43V0z" fill="#4038FF"/><path d="M14.48 0v18.82c0 7.2-5.85 13.03-13.03 13.03H0l.86-2.9h.59c5.56 0 10.13-4.51 10.13-10.13V0h2.9z" fill="#4038FF"/><path d="M164.7 13.74h1.26c.02.48.19.83.5 1.07.33.23.71.35 1.15.35.42 0 .78-.1 1.1-.28a.9.9 0 00.46-.81.9.9 0 00-.28-.7c-.19-.17-.52-.3-1-.4l-1.18-.23a2.58 2.58 0 01-1.36-.68 1.87 1.87 0 01-.47-1.34c0-.28.06-.54.19-.78.12-.25.3-.47.54-.65.23-.19.5-.33.82-.43a3.56 3.56 0 012.05-.03c.33.09.62.22.87.4a2.25 2.25 0 01.85 1.75h-1.26c-.02-.46-.16-.8-.44-.99-.28-.2-.6-.3-.99-.3s-.72.1-1 .29a.86.86 0 00-.4.73c0 .28.08.5.24.65.16.15.42.27.77.34l1.2.25c.72.15 1.24.4 1.59.73.34.34.52.8.52 1.37 0 .3-.07.58-.2.84a1.9 1.9 0 01-.59.67 3.66 3.66 0 01-2.04.62c-.4 0-.78-.06-1.13-.17-.35-.1-.65-.25-.92-.45-.26-.2-.46-.46-.61-.76-.15-.3-.23-.65-.24-1.06zm6.76-3.8V8.86h1.2V6.48h1.25v2.38h1.64v1.08h-1.64v4.98h1.64V16h-2.89V9.94h-1.2zm5.64 3.68V8.86h1.26v4.62c0 .51.1.92.3 1.23.2.3.57.45 1.1.45.54 0 .96-.2 1.27-.6.31-.4.47-.9.47-1.53V8.86h1.26V16h-1.26v-1.18c-.2.42-.46.75-.79 1-.32.23-.76.35-1.3.35a2.9 2.9 0 01-.92-.14 1.8 1.8 0 01-.73-.45c-.2-.2-.37-.47-.48-.79a3.53 3.53 0 01-.18-1.17zm7.49-1.19c0-.51.05-1 .17-1.45.12-.46.3-.86.52-1.2a2.53 2.53 0 012.13-1.1 2.4 2.4 0 012.28 1.33V6.5h1.27V16h-1.27v-1.16a2.5 2.5 0 01-.9.99c-.37.23-.82.34-1.35.34-.48 0-.9-.1-1.26-.3-.36-.19-.65-.46-.89-.8a3.64 3.64 0 01-.53-1.18 6.01 6.01 0 01-.17-1.46zm1.32 1.1a1.54 1.54 0 00.53 1.18 1.97 1.97 0 001.3.45c.63 0 1.11-.2 1.45-.6.34-.4.5-.91.5-1.53v-1.2c0-.62-.16-1.12-.5-1.52-.34-.41-.82-.61-1.45-.61a2.08 2.08 0 00-1.3.45c-.16.14-.3.31-.39.51-.1.2-.14.42-.14.66v2.22zm7.2-5.73V6.48h1.31V7.8h-1.31zm.02 8.2V8.86h1.26V16h-1.25zm3.07-3.57c0-.54.06-1.04.2-1.5.13-.47.32-.86.59-1.18.27-.33.6-.59 1-.78.4-.18.88-.28 1.42-.28.54 0 1.01.1 1.41.28.4.19.74.45 1 .78.27.32.46.71.6 1.18.13.46.2.96.2 1.5 0 .55-.07 1.06-.2 1.51-.14.46-.33.85-.6 1.18-.26.33-.6.58-1 .77-.4.19-.88.28-1.41.28-.54 0-1.02-.1-1.42-.28-.4-.19-.73-.44-1-.77a3.33 3.33 0 01-.6-1.18c-.13-.45-.19-.96-.19-1.5zm1.33 1.1a1.46 1.46 0 00.56 1.18 2.03 2.03 0 001.32.45 2.03 2.03 0 001.31-.44 1.58 1.58 0 00.56-1.18v-2.22a1.58 1.58 0 00-.56-1.18 2.1 2.1 0 00-2.04-.33c-.22.09-.42.2-.6.34-.16.14-.3.31-.4.51-.1.2-.15.42-.15.66v2.22z" fill="#7B8A95"/></svg>
